X: 158
T: Le Brasselets
%R: march, reel
B: Chas & Sam Thompson "Twenty Four Country Dances for the Year 1779", London 1779, p.79 #2
F: http://www.vwml.org/browse/browse-collections-dance-tune-books/browse-thompsons1779
Z: 2014 John Chambers <jc:trillian.mit.edu> (added dance description)
N: The double notes in bars 7, 13 have "G.F." (German Flute) above and "V." (Violin) below.
M: 2/4
L: 1/8
K: A
% - - - - - - - - - - - - - - - - - - - - - - - - - - - - -
|:\
.a.a.e.e | .f.fe2 | dBcA | G/A/B/G/ A[AA,] |\
.A.A.E.E | .F.FE2 | D[dB,][cC]A | G/A/B/G A2 :|
|:\
Ac B/c/d/c/ | cfeG | AE Ff/e/ | dBGE |\
FD [BB,]B/A/ | GE dB | cfeA | G/A/B/G/ A2 :|
% - - - - - - - - - - Dance description - - - - - - - - - -
%%begintext align
%%   Hands across half round and Allemand
%% Partners half round & Rigadoon .|. the
%% same back again :|. lead down one Cu.
%% Allemand over head and Rigadoon .|:
%% Lead off Arm in Arm :|:
%%endtext

%%sep 1 1 500
%%sep 1 1 500
